X: 1
T: Wind That Shakes The Barley, The
S: https://thesession.org/tunes/116#setting116
R: reel
M: 4/4
L: 1/8
K: Dmaj
|A2AB AF ED|B2BA Bc (3dcB|A2AB AFED|gfed BcdB|
L: 1/4
M: 4/4
% https://www.ucolick.org/~sla/abcmusic/piano/piano.html
|[A4D4]-|[D4A4]-|[A4D4]-|[D4A4]|
L: 1/8
|A2AB AFED|B2BA BcdB|A2AB AFED|gfed Bcde|
|f2fd g2ge|f2fd Bcde|f2fd g2fg|afed Bcde|
f2fd g2ge|f2fd Bcde|defg a2-ab|afed BcdB|